icons/svg/16x16/link/outline.svg

<svg xmlns="http://www.w3.org/2000/svg" width="16" height="16" viewBox="0 0 16 16">
  <path fill-rule="evenodd" d="M5.2524,10.709 C5.4474,10.904 5.7034,11.002 5.9594,11.002 C6.2154,11.002 6.4714,10.904 6.6664,10.709 L10.6264,6.749 C11.0174,6.358 11.0174,5.726 10.6264,5.335 C10.2354,4.944 9.6034,4.944 9.2124,5.335 L5.2524,9.295 C4.8614,9.686 4.8614,10.318 5.2524,10.709 L5.2524,10.709 Z M13.8364,2.125 C12.3364,0.625 9.7214,0.625 8.2224,2.125 L6.2434,4.104 L7.6564,5.52 L9.6364,3.539 C10.3804,2.795 11.6784,2.794 12.4224,3.539 C12.7944,3.911 12.9994,4.405 12.9994,4.932 C12.9994,5.458 12.7944,5.953 12.4234,6.324 L10.4434,8.304 L11.8564,9.72 L13.8364,7.739 C14.5864,6.989 14.9994,5.992 14.9994,4.932 C14.9994,3.871 14.5864,2.874 13.8364,2.125 L13.8364,2.125 Z M8.3434,10.404 L9.7554,11.82 L7.7774,13.799 C7.0274,14.549 6.0304,14.962 4.9694,14.962 C3.9094,14.962 2.9124,14.549 2.1624,13.799 C1.4124,13.05 1.0004,12.053 1.0004,10.992 C1.0004,9.932 1.4124,8.935 2.1624,8.185 L4.1434,6.204 L5.5554,7.62 L3.5764,9.6 C3.2044,9.971 3.0004,10.466 3.0004,10.992 C3.0004,11.519 3.2044,12.013 3.5764,12.385 C4.3204,13.129 5.6184,13.129 6.3624,12.385 L8.3434,10.404 Z"/>
</svg>

<svg width="16" height="16" fill="none" xmlns="http://www.w3.org/2000/svg">
  <path fill-rule="evenodd" clip-rule="evenodd" d="M5.252 10.709a.997.997 0 001.414 0l3.96-3.96a.999.999 0 10-1.414-1.414l-3.96 3.96a.999.999 0 000 1.414zm8.584-8.584c-1.5-1.5-4.115-1.5-5.614 0L6.243 4.104 7.656 5.52l1.98-1.981c.744-.744 2.042-.745 2.786 0 .372.372.577.866.577 1.393 0 .526-.205 1.021-.576 1.392l-1.98 1.98 1.413 1.416 1.98-1.981A3.944 3.944 0 0015 4.932a3.94 3.94 0 00-1.163-2.807zm-5.493 8.279l1.412 1.416-1.978 1.979a3.945 3.945 0 01-2.808 1.163 3.944 3.944 0 01-2.807-1.163A3.94 3.94 0 011 10.992c0-1.06.412-2.057 1.162-2.807l1.981-1.981L5.555 7.62 3.576 9.6A1.953 1.953 0 003 10.992c0 .527.204 1.021.576 1.393.744.744 2.042.744 2.786 0l1.981-1.981z" fill="#000"/>
</svg>
